svg/music_accidental_sharp.svg

<svg xmlns="http://www.w3.org/2000/svg" viewBox="0 0 24 24"><path d="M17 9.5v-2l-2 .6V5.5h-2v3.2l-2 .6V6.5H9v3.4l-2 .6v2l2-.6v2l-2 .6v2l2-.6v2.6h2v-3.2l2-.6v2.8h2v-3.4l2-.6v-2l-2 .6v-2zm-4 3.2-2 .6v-2l2-.6z"/></svg>

<?xml version="1.0" encoding="UTF-8"?><!DOCTYPE svg PUBLIC "-//W3C//DTD SVG 1.1//EN" "http://www.w3.org/Graphics/SVG/1.1/DTD/svg11.dtd"><svg xmlns="http://www.w3.org/2000/svg" xmlns:xlink="http://www.w3.org/1999/xlink" version="1.1" id="mdi-music-accidental-sharp" width="24" height="24" viewBox="0 0 24 24"><path d="M17 9.5V7.5L15 8.1V5.5H13V8.7L11 9.3V6.5H9V9.9L7 10.5V12.5L9 11.9V13.9L7 14.5V16.5L9 15.9V18.5H11V15.3L13 14.7V17.5H15V14.1L17 13.5V11.5L15 12.1V10.1L17 9.5M13 12.7L11 13.3V11.3L13 10.7V12.7Z" /></svg>
